storage/app/icons/phosphoricons/regular/align-center-vertical.svg

<svg xmlns="http://www.w3.org/2000/svg" fill="currentColor" viewBox="0 0 256 256"><path d="M224 120h-16V72a16 16 0 0 0-16-16h-40a16 16 0 0 0-16 16v48h-16V48a16 16 0 0 0-16-16H64a16 16 0 0 0-16 16v72H32a8 8 0 0 0 0 16h16v72a16 16 0 0 0 16 16h40a16 16 0 0 0 16-16v-72h16v48a16 16 0 0 0 16 16h40a16 16 0 0 0 16-16v-48h16a8 8 0 0 0 0-16m-120 88H64V48h40Zm88-24h-40V72h40Z"/></svg>

<svg xmlns="http://www.w3.org/2000/svg" viewBox="0 0 256 256" fill="currentColor"><path d="M224,120H208V72a16,16,0,0,0-16-16H152a16,16,0,0,0-16,16v48H120V48a16,16,0,0,0-16-16H64A16,16,0,0,0,48,48v72H32a8,8,0,0,0,0,16H48v72a16,16,0,0,0,16,16h40a16,16,0,0,0,16-16V136h16v48a16,16,0,0,0,16,16h40a16,16,0,0,0,16-16V136h16a8,8,0,0,0,0-16ZM104,208H64V48h40Zm88-24H152V72h40Z"/></svg>
